!!!OTL: Das weinholende Maedchen
!!!OTL-incipit:Es trug ein schwarzbraun' Maedchen
!!!ARE: Europa, Mitteleuropa, Deutschland (BRD), Rheinland, Niederrhein
!!!YOR: 6, S. 137
!!    1840 gedruckt in Berlin
!!!SCT: Q0129B
!!!TXL: @@DE
!!!YEM: Copyright 1995, estate of Helmut Schaffrath.
**kern	**text
*ICvox	*
*M6/8	*
*k[b-e-]	*
*g:	*
{8d	Es
=1	=1
4g	trug
8g	ein
(8aL	scnwarʒ-
8b-)	.
8ccJ	-braun'
=2	=2
4.dd	Mäd-
4a}	-chen
{8a	ein'n
=3	=3
4dd	Be-
8dd	-cher
(8ddL	ro-
8cc)	.
8b-J	-ten
=4	=4
4a	Wein.
8r	.
4r}	.
{8dd	Ʒu
=5	=5
(8ffL	Strab-
8ee-)	.
8ddJ	-burg
(8ccL	auf
8dd)	.
8ee-J	der
=6	=6
4.dd	Stra-
(8ddL	-ßen
8ccJ)}	.
{8a	be-
=7	=7
8b-L	-geg-
8a	-net
8gJ	ihr
8ccL	ein
8b-	Kna-
8aJ	-be
=8	=8
4.g	fein.
4r}	.
==	==
!!!AGN: Ballade, Werbung
!! Vermutlich keine originale Balladenmelodie sondern Unterlegung des
!!    Balladentextes mit einer anderen Balladenmelodie durch Zuccalmaglio.
!!!ONB: ESAC (Essen Associative Code) Database: BALLADE
!!!AMT: compound duple
!!!AIN: vox
!!!EED: Helmut Schaffrath
!!!EEV: 1.0
!!!source: Deutsche Volkslieder mit ihren Melodien Balladen. Herausgegeben vom Deutschen Volksliedarchiv. Sechster Band. Freiburg/Breisgau 1976.
!!!page: 137
!!!ENC: Anna Maria Matuszewska
!!!EEV: 2025/03/06
*-	*-
